src/icons/deployment-timeout-new.svg

<svg enable-background="new 0 0 14 14" viewBox="0 0 14 14" xmlns="http://www.w3.org/2000/svg"><g><path d="m4 0h6c2.2 0 4 1.8 4 4v6c0 2.2-1.8 4-4 4h-6c-2.2 0-4-1.8-4-4v-6c0-2.2 1.8-4 4-4z" fill="#627386"/><path d="m7 1.8c2.9 0 5.2 2.3 5.2 5.2s-2.3 5.2-5.2 5.2-5.2-2.3-5.2-5.2 2.3-5.2 5.2-5.2" fill="#fff"/><path d="m13.1 4.2c-.5-.5-.8-1-1.1-1.6-.9-.3-1.6-.8-2.2-1.4-.3.1-.6.1-1 .1-.9-.1-1.8-.3-2.5-.7v7.1h6.6c.1-.4.2-.8.4-1.2v-1c-.1-.4-.2-.8-.2-1.3" fill="#627386"/></g></svg>

<?xml version="1.0" encoding="utf-8"?>
<!-- Generator: Adobe Illustrator 20.1.0, SVG Export Plug-In . SVG Version: 6.00 Build 0)  -->
<svg version="1.1" id="Layer_1" xmlns="http://www.w3.org/2000/svg" xmlns:xlink="http://www.w3.org/1999/xlink" x="0px" y="0px"
	 viewBox="0 0 14 14" style="enable-background:new 0 0 14 14;" xml:space="preserve">
<style type="text/css">
	.st0{fill:#627386;}
	.st1{fill:#FFFFFF;}
</style>
<title>HDL/Icon/Standard/Deployment/timeout</title>
<desc>Created with Sketch.</desc>
<g id="Colors">
	<g id="Deployment-Icons" transform="translate(-121.000000, -500.000000)">
		<g id="Timeout_1_" transform="translate(100.000000, 482.000000)">
			<g id="HDL_x2F_Icon_x2F_Standard_x2F_Deployment_x2F_timeout" transform="translate(21.000000, 18.000000)">
				<g id="Timeout">
					<path id="Rectangle" class="st0" d="M4,0h6c2.2,0,4,1.8,4,4v6c0,2.2-1.8,4-4,4H4c-2.2,0-4-1.8-4-4V4C0,1.8,1.8,0,4,0z"/>
					<path id="Fill-3" class="st1" d="M7,1.8c2.9,0,5.2,2.3,5.2,5.2S9.9,12.2,7,12.2S1.8,9.9,1.8,7S4.1,1.8,7,1.8"/>
					<path id="Fill-7" class="st0" d="M13.1,4.2c-0.5-0.5-0.8-1-1.1-1.6c-0.9-0.3-1.6-0.8-2.2-1.4c-0.3,0.1-0.6,0.1-1,0.1
						C7.9,1.2,7,1,6.3,0.6v7.1h6.6c0.1-0.4,0.2-0.8,0.4-1.2v-1C13.2,5.1,13.1,4.7,13.1,4.2"/>
				</g>
			</g>
		</g>
	</g>
</g>
</svg>
